svg/fluentui-system-icons/ic_fluent_food_grains_24_filled.svg

<svg width="24" height="24" viewBox="0 0 24 24" fill="none" xmlns="http://www.w3.org/2000/svg">
<path d="M12.6109 2.28688C12.2608 1.9825 11.7401 1.9825 11.39 2.28688C9.78044 3.68653 8.95147 5.6197 8.90313 7.56889C8.89841 7.7593 9.01177 7.93018 9.18098 8.01761C9.76606 8.31989 10.3325 8.69919 10.8817 9.16444C11.1393 9.38268 11.3731 9.61172 11.5854 9.84526C11.8054 10.0874 12.1956 10.0874 12.4156 9.84525C12.6279 9.61167 12.8618 9.3826 13.1194 9.16433C13.6679 8.69977 14.2343 8.32097 14.8197 8.019C14.989 7.93165 15.1025 7.76074 15.0978 7.57026C15.0498 5.62061 14.2209 3.68686 12.6109 2.28688ZM12.0005 18.0432C13.5865 15.2353 16.7906 13.5318 20.1703 13.9824C20.6585 14.0475 21.0234 14.4829 20.9847 14.9866C20.6803 18.9439 17.3804 21.9997 13.4113 21.9997H12.039L12.0178 22H10.5899C6.62081 22 3.32091 18.9442 3.01649 14.9868C2.97775 14.4831 3.34267 14.0477 3.83088 13.9826C7.21053 13.532 10.4144 15.2354 12.0005 18.0432ZM19.6461 12.9301C17.7989 12.8281 15.9924 13.31 14.5202 14.0945C13.6379 14.5647 12.8296 15.1696 12.1985 15.8664C12.0931 15.9827 11.9079 15.9827 11.8025 15.8664C11.1714 15.1695 10.3631 14.5647 9.48074 14.0945C8.01227 13.3121 6.21124 12.8307 4.36901 12.9296C3.63919 11.7809 3.1395 10.4596 3.01866 9.13031C2.97024 8.59773 3.36684 8.13361 3.89309 8.08976C6.34764 7.88521 8.39672 8.37003 10.2353 9.92747C11.0643 10.6297 11.6215 11.4739 12.0005 12.1935C12.3796 11.4738 12.9368 10.6296 13.7658 9.92737C15.6051 8.3693 17.6688 7.88531 20.1222 8.08976C20.6484 8.13361 21.045 8.59774 20.9966 9.13031C20.8758 10.4598 20.376 11.7814 19.6461 12.9301Z" fill="#212121"/>
</svg>

<svg xmlns="http://www.w3.org/2000/svg" width="24" height="24"><path d="M12.61 2.287a.93.93 0 0 0-1.22 0 7.206 7.206 0 0 0-2.487 5.282.497.497 0 0 0 .278.449 9.063 9.063 0 0 1 1.7 1.146c.258.219.492.448.704.681.22.242.61.242.83 0 .213-.233.447-.462.704-.68a9.036 9.036 0 0 1 1.7-1.146.497.497 0 0 0 .279-.449 7.206 7.206 0 0 0-2.487-5.283ZM12 18.043a8.162 8.162 0 0 1 8.17-4.06c.488.064.853.5.815 1.004A7.596 7.596 0 0 1 13.41 22h-2.82a7.596 7.596 0 0 1-7.574-7.013.941.941 0 0 1 .815-1.004 8.161 8.161 0 0 1 8.17 4.06Zm7.646-5.113c-1.847-.102-3.654.38-5.126 1.165-.882.47-1.69 1.075-2.322 1.771a.268.268 0 0 1-.396 0c-.63-.697-1.439-1.301-2.321-1.771-1.469-.783-3.27-1.264-5.112-1.165-.73-1.15-1.23-2.47-1.35-3.8a.958.958 0 0 1 .874-1.04c2.455-.205 4.504.28 6.342 1.837.83.703 1.386 1.547 1.766 2.267.379-.72.936-1.564 1.765-2.267 1.84-1.558 3.903-2.042 6.356-1.837a.958.958 0 0 1 .875 1.04c-.121 1.33-.621 2.651-1.35 3.8Z"/></svg>
